X:1
T:Quand Theseus
T:Gais et jolis
T: Guillaume de Machaut
T:Ballade 35
C:Guillaume de Machaut
%%score 1 2 3
L:1/8
Q:1/4=130
M:4/4
K:C
V:1 alto nm="Viola"
V:2 tenor nm="Contratenor"
V:3 tenor nm="Tenor"
V:1
"^T" C8 | E D2 C2 B, CA, | B,8 | A,B, C D2 A,2 B, | DC B, A,2 G,2 A, | F,8 | F8 | C F2 E2 D2 C | %8
w: Gais|et * * jo- * *|lis|||lies|chan-||
w: pleins|de * * de- * *|sir|||et|en||
 E D2 C2 B, A,B, | C8 | E D2 C2 B, A,B, |[M:3/2] G,4 G,2 z B, C2 D2 |[M:4/4] E4 DE DE | %13
w: |tans|et * * * * *|joi- eus sui, ce m'est|vis * * * *|
w: |cuer|fa- * * * * *|mil- leus de re- ve-|oir * * * *|
 GF E D2 C B,^C | D3 G,2 A,2 B, |1[M:3/2] C2 ED CB, C A,2 C B, ^C || D12 :| %17
w: au * * * * * *||gra- * * * * * * ci- eus re-|tour,|
w: ma * * * * * *||||
[M:3/2] C2 ED CB, C A,2 B, A, B, |2 C12 ||[Q:1/4=110]"^T" G2 G4 A2 z G2 ^F | %20
w: ||si qu'il n'est * *|
w: da- * * * * * * me de va-|lour.||
[M:4/4] G2 z A G F E F | D2 z G GF FE |[M:3/2] E D2 C FE DC B, C B, ^C | %23
w: maulz. tri- stes- se ne do-|lour qui de * mon *|cuer * * pe- * * * ust joi- e mou|
w: |||
 D4- D2 z[Q:1/4=100]"^T" B, C2 D2 |[M:4/4] E4 DE DE | GF E D2 C B,^C | D3 G,2 A,2 B, | %27
w: voir: * tout pour l'e-|spoir * * * *|que * * * * * *||
w: ||||
[M:3/2][Q:1/4=90]"^T" C2 ED CB, C A,2 B, A, B, |[Q:1/4=130]"^T" C12 |] %29
w: j'ay * * * * * * de li ve-|oir.|
w: ||
V:2
 G,8 | G,2 F,E, z D, C,D, | E,8 | G,C, G, A,2 G,2 ^F, | G,2 z2 D2 ED | CB, C A,2 B, A,B, | C8 | %7
 A,4 G,4 | G, C,2 D, C, D,2 E, | G,8 | C2 B,A, z D2 C |[M:3/2] B,4 D E2 D CB, CA, |[M:4/4] B,8 | %13
 C2 B,A, B, A,2 G, | z A, G,F, E,^F, G,F, |1[M:3/2] G,4 z G, A,C B, A,2 ^G, || A,12 :| %17
[M:3/2] G,4 z F,2 G, A, G,2 ^F, |2 G,12 || C,4 C,2 z2 B,2 A,B, |[M:4/4] C8 | B,2 C2 G,4 | %22
[M:3/2] C,3 D, z E, D,E, F,G, A,^G, | A,8 G,F, F,D, |[M:4/4] E,4 z B, A,B, | C2 B,A, B, A,2 G, | %26
 z A, G,F, E,^F, G,F, |[M:3/2] G,4 z F,2 G, A, G,2 F, | G,12 |] %29
V:3
 C,8 | C,2 F,4 A,2 | G,8 | z G,2 D, E,2 D,2 | C,2 D,4 E,2 | F,2 A,4 G,2 | F,8 | F,2 A,4 C2 | %8
 G,2 A,4 G,2 | C,8 | C,2 D,4 F,2 |[M:3/2] E,4 G,4 A,4 |[M:4/4] G,8 | C,2 F,4 E,2 | D,2 E,4 D,2 |1 %15
[M:3/2] C,4 G,2 F,4 E,2 || D,12 :|[M:3/2] C,4 F,2 E,4 D,2 |2 C,12 || C2 B,A, z G,2 F, E,2 D,2 | %20
[M:4/4] C,8 | G,2 C,4 E,2 |[M:3/2] G,2 A,4 G,2 F,2 E,2 | D,4 D,4 A,4 |[M:4/4] G,8 | C,2 F,4 E,2 | %26
 D,2 E,4 D,2 |[M:3/2] C,4 F,2 E,4 D,2 | C,12 |] %29

